X:1
T:Ah vous dirais-je Maman
C:W.A. Mozart
L:1/4
Q:130
M:2/4
K:C
 [cC,][cC]   | [gE][gC]  | [aF][aC]  | [gE][gC]  |
 [fD][fB,]   | [eC][eA,] | [dF,][d3/4G,3/4]e1/4  |
 [c2C,2]     | [gE][gG,] | [fD][fG,] | [eC][eG,] |
 [dB,][dG,]  | [gE][gG,] | [fD][fG,] | [e7/8C7/8]f/8e/8d/8[e3/4C3/4][f/4D/4] |
 [eCG,][dB,] | [cC,][cC] | [gE][gC]  | [aF][aC]  |
 [gE][gC]    | [fD][fB,] | [eC][eA,] | [d7/8F,7/8]f/8e/8d/8[d3/4G3/4]e/4 |
 [c2C,2]
